packages/core/src/svgs/tokens/branded/KAVA.svg

<svg width="24" height="24" viewBox="0 0 24 24" fill="none" xmlns="http://www.w3.org/2000/svg">
<path d="M16.5036 9.99805H17.5038L15.2534 14.9993H14.253L12.0024 9.99805H13.0028L14.7532 13.999L16.5036 9.99805ZM3.00025 14.9993V8.99774H2V14.9993H3.00025ZM5.75094 14.9993L3.50038 11.9984L5.75094 8.99774H7.00125L4.75068 11.9984L7.00125 14.9993H5.75094ZM9.61689 9.99805C8.51663 9.99805 7.66141 10.5981 7.60139 11.4984H8.58164C8.67166 11.0733 9.24181 10.9982 9.61689 10.9982C9.98699 10.9982 10.5021 11.1733 10.5021 11.6884V11.9984H9.2568C8.15153 11.9984 7.50137 12.6636 7.50137 13.5088C7.50137 14.3991 8.16654 14.9993 9.15178 14.9993C9.40093 15.0139 9.65031 14.975 9.88325 14.8853C10.1161 14.7955 10.3272 14.657 10.5021 14.4792V14.9993H11.5024V11.6084C11.5024 10.6331 10.7522 9.99805 9.61689 9.99805ZM10.5021 12.7537V13.0537C10.4371 13.704 10.002 13.9639 9.32183 13.999C8.92673 14.019 8.58164 13.8189 8.58164 13.4989C8.58164 13.1788 8.8167 12.8887 9.38184 12.8487L10.5021 12.7537ZM20.1145 9.99805C19.0192 9.99805 18.164 10.5981 18.099 11.4984H19.0842C19.1743 11.0733 19.7444 10.9982 20.1145 10.9982C20.4846 10.9982 21.0047 11.1733 21.0047 11.6884V11.9984H19.7544C18.6442 11.9984 18.004 12.6636 18.004 13.5088C18.004 14.3991 18.6692 14.9993 19.6494 14.9993C19.8985 15.0139 20.1479 14.975 20.3808 14.8853C20.6138 14.7955 20.8248 14.657 20.9997 14.4792V14.9993H22V11.6084C22 10.6331 21.2498 9.99805 20.1145 9.99805ZM21.0047 12.7537V13.0537C20.9397 13.704 20.5047 13.9639 19.8244 13.999C19.4243 14.019 19.0842 13.8189 19.0842 13.4989C19.0842 13.1788 19.3193 12.8887 19.8844 12.8487L21.0047 12.7537Z" fill="#FF564F"/>
</svg>

<svg xmlns="http://www.w3.org/2000/svg" width="24" height="24" fill="none" viewBox="0 0 24 24">
    <path fill="#FF564F" d="M16.504 9.998h1L15.254 15h-1.001l-2.25-5.001h1L14.753 14zM3 15V8.998H2v6.001zm2.75 0L3.5 12l2.25-3.001h1.251l-2.25 3L7 15zm3.867-5.001c-1.1 0-1.956.6-2.016 1.5h.98c.09-.425.66-.5 1.036-.5.37 0 .885.175.885.69v.31H9.257c-1.105 0-1.756.666-1.756 1.51 0 .891.666 1.491 1.65 1.491a1.75 1.75 0 0 0 1.351-.52V15h1v-3.39c0-.976-.75-1.611-1.885-1.611m.885 2.756v.3c-.065.65-.5.91-1.18.945-.395.02-.74-.18-.74-.5s.235-.61.8-.65zm9.612-2.756c-1.095 0-1.95.6-2.015 1.5h.985c.09-.425.66-.5 1.03-.5s.89.175.89.69v.31h-1.25c-1.11 0-1.75.666-1.75 1.51 0 .891.665 1.491 1.645 1.491a1.75 1.75 0 0 0 1.35-.52V15H22v-3.39c0-.976-.75-1.611-1.886-1.611m.89 2.756v.3c-.064.65-.5.91-1.18.945-.4.02-.74-.18-.74-.5s.235-.61.8-.65z"/>
</svg>
